resources/svg/image-document.svg

<svg xmlns="http://www.w3.org/2000/svg" viewBox="0 0 15 15" fill="currentColor"><path fill-rule="evenodd" clip-rule="evenodd" d="M1 1.5C1 0.671573 1.67157 0 2.5 0H10.7071L14 3.29289V10.2916L11.5004 7.78819L8.54137 10.7453L4.4998 5.69995L1 10.0747V1.5ZM11 6H10V5H11V6Z" fill="black"/><path d="M1 11.6755V13.5C1 14.3284 1.67157 15 2.5 15H12.5C13.3284 15 14 14.3284 14 13.5V11.7069L11.4997 9.20271L8.45873 12.2417L4.50031 7.3001L1 11.6755Z" fill="black"/></svg>

<svg xmlns="http://www.w3.org/2000/svg" viewBox="0 0 15 15" fill="currentColor"><path fill-rule="evenodd" clip-rule="evenodd" d="M1 1.5A1.5 1.5 0 012.5 0h8.207L14 3.293v6.999l-2.5-2.504-2.959 2.957L4.5 5.7 1 10.075V1.5zM11 6h-1V5h1v1z" fill="currentColor"/><path d="M1 11.675V13.5A1.5 1.5 0 002.5 15h10a1.5 1.5 0 001.5-1.5v-1.793l-2.5-2.504-3.041 3.039L4.5 7.3 1 11.675z" fill="currentColor"/></svg>
